X:1
T:St. Saviour, CM
T:St. Saviour, CM
T:Frederick George Baker , 1876
T:Public Domain Courtesy of the Cyber Hymnal™
C:Frederick George Baker , 1876
Z:Public Domain
Z:Courtesy of the Cyber Hymnal™
%%score ( 1 2 ) 3
L:1/8
Q:1/4=113
M:4/4
K:C
V:1 treble 
V:2 treble 
V:3 bass 
V:1
 [Ec]2 | [Gc]2 [GB]2 [Gc]2 [FA]2 | G3 z F E2 [EG]2 | [FA]2 [Gc]2 [Gd]2 [^Fd]2 | [Gd]6 [FG]2 | %5
 [Ee]3 [Gd] [Gc]2 [FA]2 | [EG]3 [DF] [CE]2 [^DA]2 | [EG]2 [Ec]2 [Fd]2 [FB]2 | [Ec]6 |] %9
V:2
 x2 | x8 | E2 D2 E2 x3 | x8 | x8 | x8 | x8 | x8 | x6 |] %9
V:3
 [C,G,]2 | [C,E]2 [F,D]2 [E,C]2 [F,C]2 | [G,C]2 [G,,B,]2 [C,C]2 [C,C]2 x | %3
 [F,C]2 [E,C]2 [D,B,]2 [D,C]2 | [G,B,]6 [G,B,]2 | [C,C]3 [D,B,] [E,C]2 [F,C]2 | %6
 [G,C]3 [^G,B,] [A,C]2 [^F,C]2 | [G,C]2 [G,C]2 [G,,B,]2 [G,,D]2 | [C,C]6 |] %9

